X: 199
T: Epping Forest. (p)1670.PLFD.199
M: 6/4
L: 1/4
Q: 3/4=100
S: Playford, Dancing Master,4th Ed.,1670.
O: England
H: 1670.
Z: Chris Partingto
K: F
d2 d c>BA | B>AG ^F2 e | f>ed c2 B | A3- A2 d |
f>ed c2 A | B>AG ^F2 D | E>=FG G2 ^F |1 G6 :|2 G3- G2 |
|: B/c/ | d3 c3 | B3-B2 d/e/ | f3 e3 | d3-d2 :|
|: d | d>ed c>BA | B>AG ^F2 D | E>FG G2 ^F |1 G3-G2 d :|2 G6 |]
